src/icons/icons_set_01/009-vimeo.svg

<svg height="50" viewBox="0 0 50 50" width="50" xmlns="http://www.w3.org/2000/svg"><path d="m41.916924 8.49507605c-.1861521 4.08528385-3.0371301 9.67823195-8.5529342 16.77884435-5.6918939 7.419251-10.5100467 11.1280382-14.4544587 11.126361-2.4401018 0-4.5045453-2.2589808-6.1933305-6.7769425-1.1286519-4.1372723-2.2564653-8.27706-3.38344012-12.4193635-1.25275329-4.5146075-2.59439001-6.7735884-4.02491018-6.7769425-.31193054 0-1.40704151.6590791-3.28533293 1.9772372l-1.97220599-2.54324016c2.0677976-1.81791777 4.10540838-3.63835109 6.11283233-5.4613 2.75706348-2.38811337 4.82569959-3.6458978 6.20590839-3.77335329 3.2601772-.31025349 5.2667627 1.92357166 6.0197563 6.70147545.8217525 5.1569162 1.3869169 8.3634279 1.6954934 9.6195353.9374687 4.2781441 1.9713675 6.4163777 3.1016964 6.4147006.8787721 0 2.1952532-1.3877555 3.9494431-4.1632664 1.75419-2.775511 2.6941743-4.8877503 2.8199527-6.336718.2515569-2.3948216-.6884274-3.59307086-2.8199527-3.59474791-1.0690279.01564759-2.1236129.249334-3.0991808.6867503 2.0577353-6.75346388 5.9895694-10.03628124 11.7955024-9.8484521 4.3049767.12577845 6.3333639 2.92225251 6.0851611 8.38942216z" transform="translate(3.995 6.762126)"/></svg>

<?xml version="1.0" encoding="UTF-8"?>
<svg width="50px" height="50px" viewBox="0 0 50 50" version="1.1" xmlns="http://www.w3.org/2000/svg" xmlns:xlink="http://www.w3.org/1999/xlink">
    <!-- Generator: Sketch 52.4 (67378) - http://www.bohemiancoding.com/sketch -->
    <title>009-vimeo</title>
    <desc>Created with Sketch.</desc>
    <g id="009-vimeo" stroke="none" stroke-width="1" fill="none" fill-rule="evenodd">
        <g id="Group" transform="translate(3.995000, 6.762126)" fill="#000000" fill-rule="nonzero">
            <g id="245-vimeo">
                <g id="ICONSET-01">
                    <g id="245-vimeo">
                        <path d="M41.916924,8.49507605 C41.7307719,12.5803599 38.8797939,18.173308 33.3639898,25.2739204 C27.6720959,32.6931714 22.8539431,36.4019586 18.9095311,36.4002814 C16.4694293,36.4002814 14.4049858,34.1413006 12.7162006,29.6233389 C11.5875487,25.4860666 10.4597353,21.3462789 9.33276048,17.2039754 C8.08000719,12.6893679 6.73837047,10.430387 5.3078503,10.4270329 C4.99591976,10.4270329 3.90080879,11.086112 2.02251737,12.4042701 L0.0503113772,9.86102994 C2.11810898,8.04311217 4.15571976,6.22267885 6.16314371,4.39972994 C8.92020719,2.01161657 10.9888433,0.753832137 12.3690521,0.626376647 C15.6292293,0.316123155 17.6358148,2.54994831 18.3888084,7.3278521 C19.2105609,12.4847683 19.7757253,15.69128 20.0843018,16.9473874 C21.0217705,21.2255315 22.0556693,23.3637651 23.1859982,23.362088 C24.0647703,23.362088 25.3812514,21.9743325 27.1354413,19.1988216 C28.8896313,16.4233106 29.8296156,14.3110713 29.955394,12.8621036 C30.2069509,10.467282 29.2669666,9.26903274 27.1354413,9.26735569 C26.0664134,9.28300328 25.0118284,9.51668969 24.0362605,9.95410599 C26.0939958,3.20064211 30.0258299,-0.0821752496 35.8317629,0.105653892 C40.1367396,0.231432335 42.1651268,3.0279064 41.916924,8.49507605 Z" id="Shape"></path>
                    </g>
                </g>
            </g>
        </g>
    </g>
</svg>
